!!!SOCIAL_FUNCTION:	songs with the corn dance
!!!PDT:	1956
!!!OTL: No_13_Buffalo_Dance_Song_(e).krn
!!!LANG: Non-Tone
!!!LING_GROUP: Muskogean
!!!REG: Florida
**kern
*staff1
=1-
=
*clefF4
*k[b-e-a-]
*M2/4
4B-\
8c\L
16B-\L
16B-\JJ
=2
4B-\
8G\L
16F\L
16F\JJ
=3
4F\
8F\L
16D\L
16D\JJ
=4||
*M5/8
8F\L
16G\L
16G\J
8F\J
4r
=5||
*M3/4
4F\
8E-/L
16C/L
16C/JJ
4C/
=6||
=
*M2/4
4F\
8F\L
16E-\L
16E-\JJ
=7
8F\L
8F\J
8E-\
8r
=8||
*M3/4
8E-\L
16F\L
16E-\JJ
8C/L
16C/L
16BB-/JJ
4BB-/
=9:|!
*M3/4
8F\L
8E-\J
8F\L
16E-\L
16E-\JJ
4E-\
==
*-
